apps/filecoin-site/public/assets/logos/solana-logo.svg

<svg style="height: 24px" width="100%" viewBox="0 0 162 24" fill="none" xmlns="http://www.w3.org/2000/svg">
<g clip-path="url(#clip0_546_59783)">
<mask id="mask0_546_59783" style="mask-type:luminance" maskUnits="userSpaceOnUse" x="0" y="0" width="100%" height="100%">
<path d="M0 0H161.5V24H0V0Z" fill="white"/>
</mask>
<g mask="url(#mask0_546_59783)">
<path d="M27.1346 18.9196L22.7046 23.6746C22.6071 23.7768 22.4899 23.8583 22.3602 23.9141C22.2305 23.9699 22.0908 23.999 21.9496 23.9996H0.949597C0.846453 24.0068 0.743629 23.9818 0.655284 23.9281C0.56694 23.8744 0.497419 23.7946 0.456294 23.6997C0.415169 23.6049 0.404463 23.4996 0.42565 23.3984C0.446836 23.2972 0.498874 23.205 0.574597 23.1346L4.9996 18.3846C5.09614 18.2809 5.21297 18.198 5.34284 18.1413C5.47271 18.0845 5.61286 18.055 5.7546 18.0546H26.7546C26.8582 18.0463 26.9618 18.0705 27.051 18.1238C27.1402 18.1771 27.2106 18.2568 27.2524 18.3519C27.2942 18.4471 27.3053 18.5529 27.2842 18.6546C27.2631 18.7564 27.2108 18.849 27.1346 18.9196ZM22.7046 9.35465C22.6078 9.25155 22.4908 9.16949 22.3609 9.11357C22.231 9.05766 22.091 9.02909 21.9496 9.02965H0.949597C0.846453 9.0225 0.743629 9.04751 0.655284 9.10122C0.56694 9.15493 0.497419 9.23471 0.456294 9.32957C0.415169 9.42444 0.404463 9.52971 0.42565 9.63091C0.446836 9.73211 0.498874 9.82425 0.574597 9.89465L4.9996 14.6446C5.09639 14.7477 5.21338 14.8298 5.34327 14.8857C5.47317 14.9416 5.61318 14.9702 5.7546 14.9696H26.7546C26.8582 14.978 26.9618 14.9538 27.051 14.9005C27.1402 14.8472 27.2106 14.7675 27.2524 14.6724C27.2942 14.5772 27.3053 14.4714 27.2842 14.3697C27.2631 14.2679 27.2108 14.1753 27.1346 14.1046L22.7046 9.35465ZM0.949597 5.94465H21.9496C22.0913 5.94427 22.2315 5.91479 22.3614 5.85802C22.4912 5.80125 22.6081 5.71842 22.7046 5.61465L27.1346 0.864649C27.2108 0.793991 27.2631 0.701352 27.2842 0.59961C27.3053 0.497868 27.2942 0.392077 27.2524 0.296944C27.2106 0.201811 27.1402 0.122061 27.051 0.0687813C26.9618 0.0155012 26.8582 -0.00866232 26.7546 -0.000350508H5.7546C5.61336 0.000259125 5.4737 0.0293562 5.34397 0.0851994C5.21424 0.141043 5.09712 0.222484 4.9996 0.324649L0.574597 5.07965C0.498874 5.15005 0.446836 5.24219 0.42565 5.34339C0.404463 5.44458 0.415169 5.54986 0.456294 5.64472C0.497419 5.73958 0.56694 5.81936 0.655284 5.87308C0.743629 5.92679 0.846453 5.9518 0.949597 5.94465Z" fill="#9F9FA9"/>
<path d="M52.735 10.1503H41.5V6.45034H55.655V2.75034H41.465C40.9798 2.74771 40.4988 2.84067 40.0495 3.02394C39.6001 3.2072 39.1913 3.47716 38.8464 3.81842C38.5014 4.15968 38.227 4.56554 38.0389 5.01284C37.8508 5.46013 37.7526 5.9401 37.75 6.42534V10.1753C37.7526 10.6606 37.8508 11.1405 38.0389 11.5878C38.227 12.0351 38.5014 12.441 38.8464 12.7823C39.1913 13.1235 39.6001 13.3935 40.0495 13.5767C40.4988 13.76 40.9798 13.853 41.465 13.8503H52.71V17.5503H38V21.2503H52.72C53.205 21.253 53.6858 21.16 54.1348 20.9766C54.5838 20.7933 54.9923 20.5233 55.3369 20.182C55.6814 19.8406 55.9553 19.4347 56.1429 18.9875C56.3305 18.5402 56.428 18.0603 56.43 17.5753V13.8253C56.426 12.8484 56.0348 11.913 55.3422 11.224C54.6495 10.5351 53.7119 10.149 52.735 10.1503ZM74.5 2.75034H63.225C62.7389 2.74639 62.2568 2.83838 61.8064 3.02105C61.3559 3.20372 60.9459 3.47348 60.5999 3.81486C60.2539 4.15625 59.9786 4.56256 59.7899 5.01051C59.6011 5.45847 59.5026 5.93926 59.5 6.42534V17.5753C59.5026 18.0606 59.6008 18.5405 59.7889 18.9878C59.977 19.4351 60.2514 19.841 60.5964 20.1823C60.9413 20.5235 61.3501 20.7935 61.7995 20.9767C62.2488 21.16 62.7298 21.253 63.215 21.2503H74.5C74.985 21.253 75.4658 21.16 75.9148 20.9766C76.3638 20.7933 76.7723 20.5233 77.1169 20.182C77.4614 19.8406 77.7353 19.4347 77.9229 18.9875C78.1105 18.5402 78.208 18.0603 78.21 17.5753V6.42534C78.207 5.69496 77.9873 4.9819 77.5788 4.37646C77.1702 3.77103 76.5912 3.30045 75.915 3.02434C75.4659 2.84113 74.9851 2.74804 74.5 2.75034ZM74.475 17.5503H63.25V6.45034H74.47L74.475 17.5503ZM114 2.75034H103C102.02 2.74542 101.078 3.12975 100.382 3.81886C99.6852 4.50798 99.2907 5.44548 99.285 6.42534V21.2503H103.025V15.1703H114V21.2503H117.74V6.42534C117.738 5.93779 117.64 5.45546 117.45 5.00621C117.261 4.55697 116.984 4.14972 116.636 3.808C116.289 3.46629 115.876 3.19687 115.424 3.01534C114.971 2.8338 114.488 2.74373 114 2.75034ZM114 11.4703H103.05V6.47034H114V11.4703ZM157.785 2.75034H146.785C146.3 2.74765 145.819 2.84058 145.369 3.02383C144.92 3.20708 144.511 3.47705 144.166 3.81834C143.821 4.15962 143.547 4.56551 143.359 5.01282C143.171 5.46013 143.073 5.94011 143.07 6.42534V21.2503H146.81V15.1703H157.76V21.2503H161.5V6.42534C161.498 5.94003 161.4 5.45994 161.212 5.01252C161.024 4.56511 160.749 4.15914 160.404 3.81783C160.059 3.47652 159.65 3.20657 159.201 3.0234C158.751 2.84023 158.27 2.74744 157.785 2.75034ZM157.76 11.4703H146.81V6.47034H157.76V11.4703ZM136 17.5503H134.5L129.145 4.29034C128.96 3.8341 128.642 3.44371 128.233 3.1693C127.824 2.89489 127.342 2.74899 126.85 2.75034H123.5C122.847 2.74768 122.22 3.00415 121.756 3.46348C121.292 3.9228 121.029 4.54745 121.025 5.20034V21.2503H124.765V6.45034H126.265L131.625 19.7103C131.814 20.1652 132.133 20.5541 132.542 20.8281C132.951 21.1021 133.433 21.249 133.925 21.2503H137.25C137.576 21.2556 137.899 21.1963 138.201 21.0756C138.504 20.955 138.779 20.7755 139.012 20.5476C139.244 20.3197 139.429 20.0479 139.556 19.748C139.683 19.4481 139.749 19.1259 139.75 18.8003V2.75034H136V17.5503ZM85.275 2.75034H81.535V17.5753C81.5373 18.0607 81.6352 18.5408 81.8232 18.9882C82.0112 19.4357 82.2856 19.8417 82.6306 20.183C82.9757 20.5243 83.3846 20.7943 83.8341 20.9774C84.2835 21.1606 84.7647 21.2533 85.25 21.2503H96.5V17.5503H85.275V2.75034Z" fill="#9F9FA9"/>
</g>
</g>
<defs>
<clipPath id="clip0_546_59783">
<rect width="161.5" height="24" fill="white"/>
</clipPath>
</defs>
</svg>

<svg xmlns="http://www.w3.org/2000/svg" fill="currentColor" style="height:24px" viewBox="0 0 162 24"><g clip-path="url(#a)"><mask id="b" width="100%" height="100%" x="0" y="0" maskUnits="userSpaceOnUse" style="mask-type:luminance"><path fill="#fff" d="M0 0h161.5v24H0V0Z"/></mask><g fill="#9F9FA9" mask="url(#b)"><path d="m27.135 18.92-4.43 4.755a1.05 1.05 0 0 1-.755.325h-21a.5.5 0 0 1-.375-.865L5 18.385a1.035 1.035 0 0 1 .755-.33h21a.5.5 0 0 1 .38.865Zm-4.43-9.565a1.03 1.03 0 0 0-.755-.325h-21a.5.5 0 0 0-.375.865L5 14.645a1.03 1.03 0 0 0 .755.325h21a.5.5 0 0 0 .38-.865l-4.43-4.75ZM.95 5.945h21a1.035 1.035 0 0 0 .755-.33l4.43-4.75a.5.5 0 0 0-.38-.865h-21A1.05 1.05 0 0 0 5 .325L.575 5.08a.5.5 0 0 0 .375.865ZM52.735 10.15H41.5v-3.7h14.155v-3.7h-14.19a3.695 3.695 0 0 0-3.715 3.675v3.75a3.695 3.695 0 0 0 3.715 3.675H52.71v3.7H38v3.7h14.72a3.687 3.687 0 0 0 3.71-3.675v-3.75a3.69 3.69 0 0 0-3.695-3.675ZM74.5 2.75H63.225A3.695 3.695 0 0 0 59.5 6.425v11.15a3.695 3.695 0 0 0 3.715 3.675H74.5a3.687 3.687 0 0 0 3.71-3.675V6.425A3.69 3.69 0 0 0 74.5 2.75Zm-.025 14.8H63.25V6.45h11.22l.005 11.1ZM114 2.75h-11a3.695 3.695 0 0 0-3.715 3.675V21.25h3.74v-6.08H114v6.08h3.74V6.425a3.681 3.681 0 0 0-1.104-2.617A3.686 3.686 0 0 0 114 2.75Zm0 8.72h-10.95v-5H114v5Zm43.785-8.72h-11a3.7 3.7 0 0 0-2.619 1.068 3.692 3.692 0 0 0-1.096 2.607V21.25h3.74v-6.08h10.95v6.08h3.74V6.425a3.686 3.686 0 0 0-2.299-3.402 3.697 3.697 0 0 0-1.416-.273Zm-.025 8.72h-10.95v-5h10.95v5ZM136 17.55h-1.5l-5.355-13.26a2.467 2.467 0 0 0-2.295-1.54h-3.35a2.464 2.464 0 0 0-2.475 2.45v16.05h3.74V6.45h1.5l5.36 13.26a2.5 2.5 0 0 0 2.3 1.54h3.325a2.454 2.454 0 0 0 1.762-.702 2.473 2.473 0 0 0 .738-1.748V2.75H136v14.8ZM85.275 2.75h-3.74v14.825a3.692 3.692 0 0 0 3.715 3.675H96.5v-3.7H85.275V2.75Z"/></g></g><defs><clipPath id="a"><path fill="#fff" d="M0 0h161.5v24H0z"/></clipPath></defs></svg>
